app/img/svg/car.svg

<?xml version="1.0" encoding="iso-8859-1"?>
<!-- Generator: Adobe Illustrator 16.0.0, SVG Export Plug-In . SVG Version: 6.00 Build 0)  -->
<!DOCTYPE svg PUBLIC "-//W3C//DTD SVG 1.1//EN" "http://www.w3.org/Graphics/SVG/1.1/DTD/svg11.dtd">
<svg version="1.1" id="Capa_1" xmlns="http://www.w3.org/2000/svg" xmlns:xlink="http://www.w3.org/1999/xlink" x="0px" y="0px"
	 width="79.536px" height="79.536px" viewBox="0 0 79.536 79.536" style="enable-background:new 0 0 79.536 79.536;"
	 xml:space="preserve">
<g>
	<g>
		<path style="fill:#010002;" d="M0,50.776h15.615c-1.038,1.388-1.665,3.086-1.665,4.961H6.258L0,54.152V50.776z M79.536,41.933
			v13.805h-6.628c0-0.197-0.026-0.383-0.042-0.58c-0.072-1.129-0.383-2.206-0.875-3.18c-1.372-2.682-4.152-4.516-7.368-4.516
			c-4.577,0-8.29,3.708-8.29,8.275H30.515c0-1.875-0.624-3.573-1.67-4.961h24.687v-28.73h13.847v3.313l4.417,13.256L79.536,41.933z
			 M68.48,38.616l-3.304-9.942h-7.735v9.942H68.48z M28.304,55.737c0,3.355-2.718,6.079-6.066,6.079
			c-3.361,0-6.077-2.734-6.077-6.079c0-3.34,2.721-6.068,6.077-6.068C25.585,49.669,28.304,52.392,28.304,55.737z M25.546,55.737
			c0-1.822-1.489-3.314-3.309-3.314c-1.838,0-3.33,1.492-3.33,3.314c0,1.844,1.491,3.313,3.33,3.313
			C24.058,59.051,25.546,57.581,25.546,55.737z M70.697,55.737c0,3.355-2.729,6.079-6.074,6.079c-3.376,0-6.079-2.734-6.079-6.079
			c0-3.34,2.724-6.068,6.079-6.068C67.968,49.669,70.697,52.392,70.697,55.737z M67.938,55.737c0-1.822-1.486-3.314-3.314-3.314
			c-1.849,0-3.313,1.492-3.313,3.314c0,1.844,1.465,3.313,3.313,3.313C66.451,59.051,67.938,57.581,67.938,55.737z M50.684,17.72H0
			v31.151h50.684V17.72z"/>
	</g>
</g>
<g>
</g>
<g>
</g>
<g>
</g>
<g>
</g>
<g>
</g>
<g>
</g>
<g>
</g>
<g>
</g>
<g>
</g>
<g>
</g>
<g>
</g>
<g>
</g>
<g>
</g>
<g>
</g>
<g>
</g>
</svg>

<svg width="80" height="80" viewBox="0 0 80 80" fill="none" xmlns="http://www.w3.org/2000/svg">
<g clip-path="url(#clip0_1267_38)">
<path d="M0 50.776H15.615C14.577 52.164 13.95 53.862 13.95 55.737H6.258L0 54.152V50.776ZM79.536 41.933V55.738H72.908C72.908 55.541 72.882 55.355 72.866 55.158C72.794 54.029 72.483 52.952 71.991 51.978C70.619 49.296 67.839 47.462 64.623 47.462C60.046 47.462 56.333 51.17 56.333 55.737H30.515C30.515 53.862 29.891 52.164 28.845 50.776H53.532V22.046H67.379V25.359L71.796 38.615L79.536 41.933ZM68.48 38.616L65.176 28.674H57.441V38.616H68.48ZM28.304 55.737C28.304 59.092 25.586 61.816 22.238 61.816C18.877 61.816 16.161 59.082 16.161 55.737C16.161 52.397 18.882 49.669 22.238 49.669C25.585 49.669 28.304 52.392 28.304 55.737ZM25.546 55.737C25.546 53.915 24.057 52.423 22.237 52.423C20.399 52.423 18.907 53.915 18.907 55.737C18.907 57.581 20.398 59.05 22.237 59.05C24.058 59.051 25.546 57.581 25.546 55.737ZM70.697 55.737C70.697 59.092 67.968 61.816 64.623 61.816C61.247 61.816 58.544 59.082 58.544 55.737C58.544 52.397 61.268 49.669 64.623 49.669C67.968 49.669 70.697 52.392 70.697 55.737ZM67.938 55.737C67.938 53.915 66.452 52.423 64.624 52.423C62.775 52.423 61.311 53.915 61.311 55.737C61.311 57.581 62.776 59.05 64.624 59.05C66.451 59.051 67.938 57.581 67.938 55.737ZM50.684 17.72H0V48.871H50.684V17.72Z" fill="#010002"/>
</g>
<defs>
<clipPath id="clip0_1267_38">
<rect width="79.536" height="79.536" fill="white"/>
</clipPath>
</defs>
</svg>
